X: 1
T: the Bridal Jig
Z: John Chambers <jc:trillian.mit.edu>
B: Cole p.58
B: Ryan 1883
R: jig
M: 6/8
L: 1/8
K: G
"D7"D \
| "G"G2G BGB | "D7"def "G"gfg | "C"ecA "G"dBG | "D7"FAG FED \
| "G"G2G BGB | "D7"def "G"gfg | "C"ecA "G"dBG | "D7"cAF "G"G2 :|
K: Em
|: B \
| "Em"B2e edB | "D"def "Em"g2a | bag "D"agf | "Em"~e3 edB \
| "Em"B2e edB | "D"def "Em"g2a | bag "D"agf |1 "Em"e2e e2 :|2 "Em "He3 "D7"d2 |]
